X:1730
T:Hunter's Road
M:6/8
L:1/8
C:Kevin Crawford
R:jig
D:Lnasa: Redwood
Z:Devin McCabe
K:D
G|:FAG FAG|FDE FAd|BFF Bcd|~B3 dcB|
!ABG FAG|FDE FAd|BGE cde|1fag fdA:|2fag fed|
!|:fed ~a3|def fed|ecA AcA|B/2c/2d e ABc|
!~B3 def|~f2b bag|f/2g/2a f def|1ecA d2f:|2ecA BAG||
